X:052 
T:Fall of Snow*, The
S:Grier MS
F:file ID: cre.4/052fall_s
B:CRE4.011 (gan ainm, no repeats)
L:1/8
Q:160
M:6/8
R:jig
K:G
D|G3 BAG|dBG BAG|DGG DGG|BcB AdB|
"5"G3 BAG|dBG BAG|DGG ABc|dcA G2 :|
f|"9"g2f edc|Bed cBA|DGG DGG|BcB A2f|
"13"g2f edc|Bed cBA|DGG ABc|dcA G2 :|
B|"17"d2g B2d|G2B D2G|DGG DGG|BcB ABc|
"21"d2g B2d|G2B D2G|DGG ABc|dcA G2 :|

%%%

